X:6160
T:Tarantella
M:6/8
O:Italy
R:Tarantella
Z:Richard Robinson 
%%TUNEURL: http://www.leeds.ac.uk/music/Info/RRTuneBk/gettune/00000735.html
%%ID:00000735
K:A min
a2a e2e|a2a e2e|f2f fgf|e3 efe|\
d2d ded|c2c cdc|B2B BcB|1 A3 Ace :|2 A3 |:
A2B|\
cBc dcB|cBc dcB|cBA ^GAB|A3 A2B|\
cBc dcd|ede fed|cBA ^GAB|A3 :|
A2G|\
c2c cde|g2g gag|f2f fgf|e2G GAB|\
c2d e2f|g2g a2g|bag fed|c3 e2f|
gfg a2g|f3 d2e|fef g2f|e3 e2g|\
fed d2d|edc c2d|e2d c2B|(A3 A2)||
